assets/social-bluesky.svg

<svg width="40" height="40" viewBox="0 0 40 40" fill="none" xmlns="http://www.w3.org/2000/svg">
<g clip-path="url(#clip0_116_41)">
<path d="M20 0C25.5 0 30.1996 2.00039 34.0996 5.90039C37.9996 9.80039 40 14.5 40 20C40 25.5 37.9996 30.1996 34.0996 34.0996C30.1996 38.0996 25.5 40 20 40C14.5 40 9.80039 37.9996 5.90039 34.0996C2.00039 30.1996 0 25.5 0 20C0 14.5 2.00039 9.80039 5.90039 5.90039C9.80039 2.00039 14.5 0 20 0ZM30 13.0859C30 9.95998 27.3195 10.9423 25.665 12.2119C23.3721 13.9714 20.9057 17.5386 20 19.4531C19.1509 17.658 16.9302 14.4102 14.7666 12.5615L14.335 12.2119C12.6806 10.9423 10 9.95998 10 13.0859C10.0001 13.7116 10.3503 18.3301 10.5557 19.0801C11.2695 21.6877 13.8706 22.3527 16.1846 21.9502C12.14 22.6538 11.1111 24.9847 13.333 27.3154C17.5535 31.7422 19.3991 26.2051 19.8721 24.7861C19.9588 24.526 19.9994 24.4043 20 24.5078C20.0006 24.4043 20.0412 24.526 20.1279 24.7861C20.6011 26.2051 22.4467 31.742 26.667 27.3154C28.8888 24.9847 27.8599 22.6539 23.8154 21.9502C26.1293 22.3527 28.7304 21.6877 29.4443 19.0801C29.6497 18.3302 29.9999 13.7117 30 13.0859Z" fill="white"/>
</g>
<defs>
<clipPath id="clip0_116_41">
<rect width="40" height="40" fill="white"/>
</clipPath>
</defs>
</svg>

<svg xmlns="http://www.w3.org/2000/svg" width="40" height="40" fill="none"><g clip-path="url(#a)"><path fill="#fff" d="M20 0c5.5 0 10.2 2 14.1 5.9S40 14.5 40 20s-2 10.2-5.9 14.1c-3.9 4-8.6 5.9-14.1 5.9S9.8 38 5.9 34.1 0 25.5 0 20 2 9.8 5.9 5.9 14.5 0 20 0m10 13.086c0-3.126-2.68-2.144-4.335-.874-2.293 1.76-4.76 5.327-5.665 7.241-.85-1.795-3.07-5.043-5.233-6.891l-.432-.35C12.681 10.942 10 9.96 10 13.086c0 .626.35 5.244.556 5.994.714 2.608 3.315 3.273 5.629 2.87-4.045.704-5.074 3.035-2.852 5.365 4.22 4.427 6.066-1.11 6.54-2.529.086-.26.126-.382.127-.278 0-.104.041.018.128.278.473 1.42 2.319 6.956 6.539 2.53 2.222-2.331 1.193-4.662-2.852-5.366 2.314.403 4.915-.262 5.63-2.87.205-.75.555-5.368.555-5.994"/></g><defs><clipPath id="a"><path fill="#fff" d="M0 0h40v40H0z"/></clipPath></defs></svg>
